;FLAVOR:Marlin
;TIME:794
;Filament used: 1.05995m
;Layer height: 0.3
;MINX:94.999
;MINY:95.832
;MINZ:0.5
;MAXX:125
;MAXY:122.833
;MAXZ:11.075
;Generated with Cura_SteamEngine 4.5.0
M104 S210
M105
M109 S210
M82 ;absolute extrusion mode
G28 ;Home
G1 Z15.0 F6000 ;Move the platform down 15mm
;Prime the extruder
G92 E0
G1 F200 E3
G92 E0
G92 E0
G92 E0
G1 F1500 E-5
;LAYER_COUNT:33
;LAYER:-4
M107
G0 F7200 X95.741 Y96.589 Z0.5
;TYPE:SUPPORT-INTERFACE
G1 F1500 E0
G1 F900 X95.85 Y96.489 E0.03075
G1 X95.939 Y96.417 E0.05455
G1 X96.152 Y96.276 E0.10765
G1 X96.198 Y96.251 E0.11853
G1 X96.471 Y96.146 E0.17933
G1 X96.716 Y96.099 E0.23119
G1 X96.816 Y96.09 E0.25206
G1 X96.966 Y96.083 E0.28328
G1 X99.654 Y96.088 E0.84205
G1 X99.817 Y96.104 E0.8761
G1 X100.038 Y96.149 E0.92298
G1 X100.1 Y96.168 E0.93646
G1 X100.323 Y96.262 E0.98677
G1 X100.385 Y96.296 E1.00146
G1 X100.57 Y96.422 E1.04799
G1 X100.749 Y96.578 E1.09735
G1 X100.823 Y96.659 E1.12016
G1 X100.92 Y96.777 E1.15191
G1 X101.082 Y97.031 E1.21454
G1 X101.187 Y97.304 E1.27534
G1 X101.234 Y97.55 E1.3274
G1 X101.243 Y97.641 E1.34641
G1 X101.25 Y97.799 E1.37929
G1 X101.25 Y100.359 E1.91145
G1 X101.295 Y100.909 E2.02616
G1 X101.434 Y101.463 E2.1449
G1 X101.66 Y101.987 E2.26352
G1 X101.97 Y102.468 E2.38248
G1 X102.352 Y102.892 E2.50111
G1 X102.8 Y103.248 E2.62006
G1 X103.299 Y103.526 E2.73881
G1 X103.842 Y103.722 E2.85881
G1 X104.551 Y103.833 E3.00799
G1 X104.653 Y103.838 E3.02922
G1 X104.817 Y103.854 E3.06347
G1 X105.038 Y103.899 E3.11036
G1 X105.1 Y103.918 E3.12384
G1 X105.323 Y104.012 E3.17414
G1 X105.385 Y104.046 E3.18884
G1 X105.57 Y104.172 E3.23537
G1 X105.749 Y104.328 E3.28473
G1 X105.823 Y104.409 E3.30753
G1 X105.92 Y104.527 E3.33929
G1 X106.082 Y104.781 E3.40191
G1 X106.187 Y105.054 E3.46272
G1 X106.234 Y105.3 E3.51478
G1 X106.243 Y105.391 E3.53379
G1 X106.25 Y105.549 E3.56666
G1 X106.245 Y110.237 E4.54119
G1 X106.229 Y110.4 E4.57523
G1 X106.184 Y110.621 E4.62212
G1 X106.165 Y110.683 E4.6356
G1 X106.048 Y110.949 E4.696
G1 X105.924 Y111.132 E4.74196
G1 X105.653 Y111.611 E4.85636
G1 X105.456 Y112.147 E4.97507
G1 X105.348 Y112.709 E5.09403
G1 X105.334 Y113.279 E5.21256
G1 X105.412 Y113.845 E5.33133
G1 X105.582 Y114.391 E5.4502
G1 X105.837 Y114.902 E5.56892
G1 X106.174 Y115.364 E5.68779
G1 X106.579 Y115.765 E5.80627
G1 X107.045 Y116.096 E5.92509
G1 X107.56 Y116.347 E6.04418
G1 X108.113 Y116.51 E6.16403
G1 X108.804 Y116.583 E6.30847
G1 X111.19 Y116.583 E6.80446
G1 X111.74 Y116.538 E6.91917
G1 X112.294 Y116.399 E7.03791
G1 X112.818 Y116.173 E7.15653
G1 X113.299 Y115.863 E7.27549
G1 X113.723 Y115.481 E7.39412
G1 X114.079 Y115.033 E7.51308
G1 X114.357 Y114.534 E7.63182
G1 X114.55 Y113.997 E7.75044
G1 X114.654 Y113.435 E7.86925
G1 X114.665 Y112.864 E7.98797
G1 X114.583 Y112.298 E8.10685
G1 X114.408 Y111.749 E8.22663
G1 X114.102 Y111.172 E8.3624
G1 X113.945 Y110.935 E8.4215
G1 X113.918 Y110.885 E8.43331
G1 X113.813 Y110.612 E8.49411
G1 X113.766 Y110.367 E8.54597
G1 X113.756 Y110.26 E8.56831
G1 X113.75 Y110.117 E8.59806
G1 X113.75 Y105.52 E9.55367
G1 X113.756 Y105.418 E9.57491
G1 X113.771 Y105.265 E9.60687
G1 X113.816 Y105.045 E9.65354
G1 X113.835 Y104.983 E9.66702
G1 X113.929 Y104.76 E9.71733
G1 X113.963 Y104.698 E9.73203
G1 X114.089 Y104.513 E9.77856
G1 X114.165 Y104.422 E9.80321
G1 X114.241 Y104.339 E9.8266
G1 X114.35 Y104.239 E9.85735
G1 X114.439 Y104.167 E9.88115
G1 X114.698 Y104.001 E9.9451
G1 X114.971 Y103.896 E10.0059
G1 X115.217 Y103.849 E10.05796
G1 X115.424 Y103.835 E10.10109
G1 X115.971 Y103.766 E10.2157
G1 X116.519 Y103.602 E10.33461
G1 X117.032 Y103.353 E10.45314
G1 X117.499 Y103.024 E10.57189
G1 X117.905 Y102.622 E10.69066
G1 X118.242 Y102.16 E10.80954
G1 X118.497 Y101.649 E10.92825
G1 X118.67 Y101.097 E11.04851
G1 X118.75 Y100.366 E11.20137
G1 X118.75 Y97.77 E11.74102
G1 X118.756 Y97.668 E11.76226
G1 X118.771 Y97.515 E11.79421
G1 X118.816 Y97.295 E11.84089
G1 X118.835 Y97.233 E11.85437
G1 X118.929 Y97.01 E11.90468
G1 X118.963 Y96.948 E11.91938
G1 X119.089 Y96.763 E11.96591
G1 X119.165 Y96.672 E11.99055
G1 X119.241 Y96.589 E12.01395
G1 X119.35 Y96.489 E12.0447
G1 X119.439 Y96.417 E12.06849
G1 X119.698 Y96.251 E12.13244
G1 X119.971 Y96.146 E12.19325
G1 X120.216 Y96.099 E12.2451
G1 X120.316 Y96.09 E12.26598
G1 X120.466 Y96.083 E12.29719
G1 X123.154 Y96.088 E12.85596
G1 X123.317 Y96.104 E12.89001
G1 X123.538 Y96.149 E12.93689
G1 X123.6 Y96.168 E12.95037
G1 X123.823 Y96.262 E13.00068
G1 X123.885 Y96.296 E13.01538
G1 X124.07 Y96.422 E13.06191
G1 X124.249 Y96.578 E13.11126
G1 X124.323 Y96.659 E13.13407
G1 X124.42 Y96.777 E13.16582
G1 X124.582 Y97.031 E13.22845
G1 X124.687 Y97.304 E13.28925
G1 X124.734 Y97.55 E13.34132
G1 X124.743 Y97.641 E13.36032
G1 X124.75 Y97.799 E13.3932
G1 X124.745 Y120.987 E18.21343
G1 X124.729 Y121.15 E18.24747
G1 X124.684 Y121.371 E18.29436
G1 X124.665 Y121.433 E18.30784
G1 X124.571 Y121.656 E18.35814
G1 X124.537 Y121.718 E18.37284
G1 X124.411 Y121.903 E18.41937
G1 X124.335 Y121.994 E18.44402
G1 X124.259 Y122.077 E18.46741
G1 X124.15 Y122.177 E18.49816
G1 X124.061 Y122.249 E18.52196
G1 X123.802 Y122.415 E18.58591
G1 X123.529 Y122.52 E18.64671
G1 X123.284 Y122.567 E18.69857
G1 X123.184 Y122.576 E18.71944
G1 X123.034 Y122.583 E18.75066
G1 X96.846 Y122.578 E24.19451
G1 X96.683 Y122.562 E24.22855
G1 X96.462 Y122.517 E24.27544
G1 X96.4 Y122.498 E24.28892
G1 X96.176 Y122.403 E24.3395
G1 X96.115 Y122.37 E24.35391
G1 X95.93 Y122.244 E24.40044
G1 X95.839 Y122.168 E24.42509
G1 X95.756 Y122.092 E24.44848
G1 X95.656 Y121.983 E24.47923
G1 X95.584 Y121.894 E24.50303
G1 X95.421 Y121.64 E24.56577
G1 X95.313 Y121.362 E24.62776
G1 X95.266 Y121.117 E24.67962
G1 X95.256 Y121.01 E24.70196
G1 X95.25 Y120.867 E24.73171
G1 X95.25 Y97.77 E29.53302
G1 X95.256 Y97.668 E29.55426
G1 X95.271 Y97.515 E29.58622
G1 X95.316 Y97.295 E29.6329
G1 X95.335 Y97.233 E29.64638
G1 X95.429 Y97.01 E29.69669
G1 X95.463 Y96.948 E29.71139
G1 X95.589 Y96.763 E29.75791
G1 X95.665 Y96.672 E29.78256
G1 X95.741 Y96.589 E29.80596
G0 F7200 X98 Y96.085
G1 F900 X98 Y122.578 E35.31321
G0 F7200 X100.8 Y122.578
G1 F900 X100.8 Y96.634 E40.70634
G0 F7200 X101.966 Y101.279
G0 X103.6 Y103.635
G1 F900 X103.6 Y122.579 E44.64434
G0 F7200 X106.4 Y122.579
G1 F900 X106.4 Y115.588 E46.0976
G0 F7200 X109.2 Y116.583
G1 F900 X109.2 Y122.58 E47.34423
G0 F7200 X112 Y122.58
G1 F900 X112 Y116.472 E48.61394
G0 F7200 X114.8 Y122.581
G1 F900 X114.8 Y103.961 E52.48459
G0 F7200 X117.6 Y102.923
G1 F900 X117.6 Y122.581 E56.57101
G0 F7200 X120.4 Y122.582
G1 F900 X120.4 Y96.086 E62.07889
G0 F7200 X123.2 Y96.093
G1 F900 X123.2 Y122.575 E67.58386
G0 F600 X123.2 Y122.575 Z0.8
G0 F7200 X107.632 Y116.159
;TIME_ELAPSED:25.941186
;LAYER:-3
;TYPE:SUPPORT
G1 F900 X107.147 Y115.922 E67.62425
G1 X106.707 Y115.611 E67.66458
G1 X106.325 Y115.232 E67.70484
G1 X106.008 Y114.796 E67.74519
G1 X105.767 Y114.315 E67.78545
G1 X105.74 Y114.225 E67.79248
G1 X95.05 Y103.535 E68.92383
G1 X95.05 Y101.413 E69.08263
G1 X105.699 Y112.062 E70.20965
G1 X105.834 Y111.693 E70.23906
G1 X106.093 Y111.237 E70.2783
G1 X106.214 Y111.058 E70.29447
G1 X106.251 Y110.993 E70.30007
G1 X106.351 Y110.754 E70.31946
G1 X106.376 Y110.674 E70.32573
G1 X106.386 Y110.628 E70.32925
G1 X95.05 Y99.292 E71.52897
G1 X95.05 Y97.785 E71.64175
G1 X95.057 Y97.647 E71.65209
G1 X95.073 Y97.485 E71.66427
G1 X95.121 Y97.242 E71.68281
G1 X106.449 Y108.571 E72.88174
G1 X106.449 Y106.449 E73.04054
G1 X103.294 Y103.294 E73.37444
G1 X103.381 Y103.342 E73.38188
G1 X103.891 Y103.526 E73.42245
G1 X104.571 Y103.633 E73.47397
G1 X104.677 Y103.64 E73.48192
G1 X104.845 Y103.656 E73.49455
G1 X105.091 Y103.705 E73.51332
G1 X105.17 Y103.731 E73.51954
G1 X105.41 Y103.832 E73.53903
G1 X105.478 Y103.869 E73.54482
G1 X105.69 Y104.013 E73.564
G1 X105.794 Y104.1 E73.57415
G1 X105.888 Y104.185 E73.58363
G1 X105.986 Y104.294 E73.5946
G1 X106.075 Y104.4 E73.60496
G1 X106.227 Y104.632 E73.62572
G1 X106.26 Y104.693 E73.63091
G1 X106.36 Y104.937 E73.65064
G1 X106.38 Y105.006 E73.65602
G1 X106.43 Y105.274 E73.67642
G1 X106.442 Y105.381 E73.68448
G1 X106.449 Y105.539 E73.69631
G0 F7200 X102.912 Y103.08
G1 F900 X102.49 Y102.744 E73.73668
G1 X102.128 Y102.345 E73.777
G1 X101.836 Y101.891 E73.81739
G1 X101.795 Y101.795 E73.8252
G1 X96.085 Y96.085 E74.42951
G1 X96.109 Y96.072 E74.43155
G1 X96.353 Y95.972 E74.45129
G1 X96.426 Y95.95 E74.45699
G1 X96.69 Y95.901 E74.47709
G1 X96.807 Y95.89 E74.48588
G1 X96.956 Y95.882 E74.49705
G1 X98.004 Y95.882 E74.57547
G1 X101.449 Y99.327 E74.94007
G1 X101.449 Y97.789 E75.05517
G1 X101.442 Y97.632 E75.06693
G1 X101.431 Y97.524 E75.07505
G1 X101.38 Y97.256 E75.09547
G1 X101.36 Y97.188 E75.10077
G1 X101.312 Y97.069 E75.11037
G1 X100.262 Y96.019 E75.2215
G1 X100.41 Y96.081 E75.23351
G1 X100.477 Y96.119 E75.23927
G1 X100.69 Y96.262 E75.25847
G1 X100.794 Y96.349 E75.26862
G1 X100.887 Y96.435 E75.2781
G1 X100.987 Y96.544 E75.28917
G1 X101.075 Y96.651 E75.29953
G1 X101.228 Y96.882 E75.32027
G1 X101.26 Y96.942 E75.32536
G0 F7200 X101.851 Y100.819
G0 X106.105 Y114.185
G0 X106.602 Y115
G0 X107.334 Y115.612
G0 X108.226 Y115.959
G0 X111.65 Y115.982
G0 X112.555 Y115.675
G0 X113.314 Y115.095
G0 X123.518 Y95.94
G1 F900 X123.345 Y95.905 E75.33857
G1 X123.178 Y95.89 E75.35111
G1 X123.047 Y95.882 E75.36094
G1 X121.338 Y95.882 E75.48883
G1 X124.949 Y99.493 E75.87099
G1 X124.949 Y101.614 E76.02972
G1 X119.482 Y96.148 E76.60826
G1 X119.321 Y96.254 E76.62268
G1 X119.214 Y96.341 E76.633
G1 X119.107 Y96.438 E76.64381
G1 X119.016 Y96.537 E76.65387
G1 X118.928 Y96.642 E76.66412
G1 X118.786 Y96.853 E76.68316
G1 X118.748 Y96.921 E76.68899
G1 X118.647 Y97.161 E76.70847
G1 X118.622 Y97.24 E76.71467
G1 X118.593 Y97.38 E76.72537
G1 X124.949 Y103.736 E77.39805
G1 X124.949 Y105.857 E77.55677
G1 X118.549 Y99.457 E78.23411
G1 X118.549 Y100.355 E78.30131
G1 X118.472 Y101.056 E78.35408
G1 X118.366 Y101.395 E78.38066
G1 X124.949 Y107.978 E79.07736
G1 X124.949 Y110.1 E79.23616
G1 X117.545 Y102.696 E80.01975
G1 X117.369 Y102.869 E80.03822
G1 X116.929 Y103.18 E80.07854
G1 X116.445 Y103.415 E80.11881
G1 X116.212 Y103.485 E80.13701
G1 X124.949 Y112.221 E81.06162
G1 X124.949 Y114.342 E81.22035
G1 X114.496 Y103.889 E82.32662
G1 X114.32 Y104.004 E82.34236
G1 X114.214 Y104.091 E82.35262
G1 X114.107 Y104.189 E82.36348
G1 X114.016 Y104.287 E82.37349
G1 X113.929 Y104.391 E82.38363
G1 X113.786 Y104.603 E82.40277
G1 X113.748 Y104.671 E82.4086
G1 X113.646 Y104.911 E82.42811
G1 X113.622 Y104.991 E82.43436
G1 X113.597 Y105.112 E82.44361
G1 X124.949 Y116.464 E83.64503
G1 X124.949 Y118.585 E83.80375
G1 X113.549 Y107.185 E85.01025
G1 X113.549 Y109.306 E85.16898
G1 X124.949 Y120.706 E86.37547
G1 X124.949 Y120.88 E86.3885
G1 X124.942 Y121.005 E86.39786
G1 X124.926 Y121.179 E86.41094
G1 X124.875 Y121.425 E86.42974
G1 X124.851 Y121.504 E86.43592
G1 X124.75 Y121.743 E86.45534
G1 X124.712 Y121.813 E86.4613
G1 X124.569 Y122.024 E86.48037
G1 X124.394 Y122.222 E86.50015
G1 X124.368 Y122.246 E86.5028
G1 X114.349 Y112.228 E87.56309
G1 X114.386 Y112.343 E87.57213
G1 X114.462 Y112.876 E87.61242
G1 X114.453 Y113.414 E87.65268
G1 X114.356 Y113.944 E87.69301
G1 X114.247 Y114.247 E87.7171
G1 X122.782 Y122.782 E88.62039
G1 X120.661 Y122.782 E88.77911
G1 X113.39 Y115.511 E89.54863
G1 X113.177 Y115.703 E89.57009
G1 X112.724 Y115.995 E89.61042
G1 X112.229 Y116.208 E89.65075
G1 X112.019 Y116.261 E89.66695
G1 X118.54 Y122.782 E90.35709
G1 X116.418 Y122.782 E90.51589
G1 X110.018 Y116.382 E91.19322
G1 X108.813 Y116.382 E91.2834
G1 X108.151 Y116.311 E91.33323
G1 X107.691 Y116.176 E91.3691
G1 X114.297 Y122.782 E92.06824
G1 X112.176 Y122.782 E92.22696
G1 X95.05 Y105.656 E94.03946
G1 X95.05 Y107.777 E94.19819
G1 X110.054 Y122.782 E95.78616
G1 X107.933 Y122.782 E95.94488
G1 X95.05 Y109.899 E97.30833
G1 X95.05 Y112.02 E97.46706
G1 X105.812 Y122.782 E98.60603
G1 X103.69 Y122.782 E98.76483
G1 X95.05 Y114.141 E99.67928
G1 X95.05 Y116.263 E99.83808
G1 X101.569 Y122.782 E100.52801
G1 X99.448 Y122.782 E100.68674
G1 X95.05 Y118.384 E101.15219
G1 X95.05 Y120.505 E101.31092
G1 X97.326 Y122.782 E101.55185
G1 X96.952 Y122.782 E101.57983
G1 X96.821 Y122.774 E101.58966
G1 X96.654 Y122.759 E101.6022
G1 X96.407 Y122.709 E101.62106
G1 X96.327 Y122.684 E101.62733
G1 X96.089 Y122.583 E101.64668
G1 X96.02 Y122.545 E101.65258
G1 X95.809 Y122.402 E101.67165
G1 X95.705 Y122.315 E101.6818
G1 X95.607 Y122.225 E101.69176
G1 X95.507 Y122.117 E101.70277
G1 X95.421 Y122.009 E101.7131
G1 X95.271 Y121.783 E101.7334
G1 X95.235 Y121.714 E101.73923
G1 X95.139 Y121.475 E101.7585
G1 X95.117 Y121.405 E101.76399
G1 X95.067 Y121.141 E101.7841
G1 X95.056 Y121.017 E101.79342
G1 X95.05 Y120.874 E101.80413
G0 F7200 X112.11 Y115.867
G0 X113.314 Y115.095
G0 X123.518 Y95.94
G1 F900 X123.59 Y95.955 E101.80963
G1 X123.671 Y95.981 E101.816
G1 X123.91 Y96.081 E101.83539
G1 X123.977 Y96.119 E101.84115
G1 X124.19 Y96.262 E101.86035
G1 X124.294 Y96.349 E101.8705
G1 X124.387 Y96.435 E101.87997
G1 X124.487 Y96.544 E101.89104
G1 X124.575 Y96.651 E101.90141
G1 X124.728 Y96.882 E101.92215
G1 X124.76 Y96.942 E101.92724
G1 X124.86 Y97.188 E101.94711
G1 X124.88 Y97.256 E101.95241
G0 F7200 X124.891 Y97.314
G1 F900 X123.518 Y95.94 E102.09777
G0 F600 X123.518 Y95.94 Z1.1
G0 F7200 X123.556 Y95.9
;TIME_ELAPSED:57.702759
;LAYER:-2
;TYPE:SUPPORT-INTERFACE
G1 F1200 X119.93 Y95.9 E102.3239
G1 X120.455 Y95.832 E102.35692
G1 X123.05 Y95.832 E102.51875
G0 F7200 X119.93 Y95.9
G1 F1200 X119.914 Y95.902 E102.51975
G1 X119.516 Y96.065 E102.54657
G1 X119.076 Y96.399 E102.58102
G1 X118.921 Y96.6 E102.59685
G1 X124.578 Y96.6 E102.94964
G1 X124.767 Y96.848 E102.96908
G1 X124.93 Y97.246 E102.99591
G1 X124.938 Y97.3 E102.99931
G1 X118.566 Y97.3 E103.39669
G1 X118.5 Y97.783 E103.42709
G1 X118.5 Y98 E103.44062
G1 X125 Y98 E103.84598
G1 X125 Y98.7 E103.88963
G1 X118.5 Y98.7 E104.29499
G1 X118.5 Y99.4 E104.33864
G1 X125 Y99.4 E104.744
G1 X125 Y100.1 E104.78765
G1 X118.5 Y100.1 E105.19301
G1 X118.5 Y100.353 E105.20879
G1 X118.451 Y100.8 E105.23683
G1 X125 Y100.8 E105.64525
G1 X125 Y101.5 E105.6889
G1 X118.283 Y101.5 E106.10779
G1 X118.265 Y101.555 E106.1114
G1 X118.027 Y102.029 E106.14448
G1 X117.903 Y102.2 E106.15765
G1 X125 Y102.2 E106.60024
G1 X125 Y102.9 E106.64389
G1 X117.241 Y102.9 E107.12777
G1 X116.905 Y103.137 E107.15341
G1 X116.428 Y103.369 E107.18649
G1 X115.92 Y103.52 E107.21954
G1 X115.315 Y103.6 E107.25759
G1 X125 Y103.6 E107.86158
G1 X125 Y104.3 E107.90523
G1 X113.96 Y104.3 E108.59372
G1 X113.742 Y104.581 E108.6159
G1 X113.575 Y104.976 E108.64264
G1 X113.572 Y105 E108.64415
G1 X125 Y105 E109.35683
G1 X125 Y105.7 E109.40048
G1 X113.5 Y105.7 E110.11766
G1 X113.5 Y106.4 E110.16131
G1 X125 Y106.4 E110.87848
G1 X125 Y107.1 E110.92213
G1 X113.5 Y107.1 E111.63931
G1 X113.5 Y107.8 E111.68296
G1 X125 Y107.8 E112.40013
G1 X125 Y108.5 E112.44379
G1 X113.5 Y108.5 E113.16096
G1 X113.5 Y109.2 E113.20461
G1 X125 Y109.2 E113.92178
G1 X125 Y109.9 E113.96544
G1 X113.5 Y109.9 E114.68261
G1 X113.5 Y110.139 E114.69751
G1 X113.56 Y110.6 E114.72651
G1 X125 Y110.6 E115.43994
G1 X125 Y111.3 E115.48359
G1 X113.886 Y111.3 E116.17669
G1 X114.176 Y111.847 E116.2153
G1 X114.224 Y112 E116.2253
G1 X125 Y112 E116.89732
G1 X125 Y112.7 E116.94097
G1 X114.388 Y112.7 E117.60277
G1 X114.414 Y112.879 E117.61405
G1 X114.406 Y113.4 E117.64654
G1 X125 Y113.4 E118.30721
G1 X125 Y114.1 E118.35087
G1 X114.248 Y114.1 E119.02139
G1 X114.128 Y114.43 E119.04329
G1 X113.923 Y114.8 E119.06967
G1 X125 Y114.8 E119.76046
G1 X125 Y115.5 E119.80411
G1 X113.329 Y115.5 E120.53195
G1 X113.146 Y115.664 E120.54728
G1 X112.7 Y115.951 E120.58035
